X:80
T: Shiliu kai hua ye'r qing
N: C0102
O: China,Hubei, Huangmei
S: I, 361]
N: Neues V. - Die Saengerin klopft an den entsprechenden Stellen
N: auf den Tisch.  Saengerin: Huang Bai = leicht variiert
N: Vereinzelt Verzierungen und Glissandi.
R: Haozi, Dawo haozi. Xiudi zaofang shi chang. Xin minge]
M: 2/4
L: 1/16
K: A
E2Eee2cB | AFEFA4 |
A3cB2A2 | BAF2E4 |
BcBFEFAc | BAF2E4 |
AFE4FAB3c | BAF2F4 |
BcBFEFAc | BAF2E4

@@@ Tune index: 6081
